src/places/scalable/start-here.svg

<svg xmlns="http://www.w3.org/2000/svg" xmlns:xlink="http://www.w3.org/1999/xlink" width="64" height="64" viewBox="0 0 64 64" version="1.1">
<g id="surface1">
<path style=" stroke:none;fill-rule:nonzero;fill:rgb(18.039216%,20.392157%,25.098041%);fill-opacity:1;" d="M 29.078125 27.039062 L 34.917969 27.039062 C 36.042969 27.039062 36.957031 27.953125 36.957031 29.078125 L 36.957031 34.917969 C 36.957031 36.046875 36.042969 36.957031 34.917969 36.957031 L 29.078125 36.957031 C 27.953125 36.957031 27.039062 36.046875 27.039062 34.917969 L 27.039062 29.078125 C 27.039062 27.953125 27.953125 27.039062 29.078125 27.039062 Z M 29.078125 27.039062 "/>
<path style=" stroke:none;fill-rule:nonzero;fill:rgb(18.039216%,20.392157%,25.098041%);fill-opacity:1;" d="M 29.078125 10.035156 L 34.917969 10.035156 C 36.042969 10.035156 36.957031 10.949219 36.957031 12.074219 L 36.957031 17.914062 C 36.957031 19.042969 36.042969 19.953125 34.917969 19.953125 L 29.078125 19.953125 C 27.953125 19.953125 27.039062 19.042969 27.039062 17.914062 L 27.039062 12.074219 C 27.039062 10.949219 27.953125 10.035156 29.078125 10.035156 Z M 29.078125 10.035156 "/>
<path style=" stroke:none;fill-rule:nonzero;fill:rgb(18.039216%,20.392157%,25.098041%);fill-opacity:1;" d="M 46.082031 10.035156 L 51.921875 10.035156 C 53.046875 10.035156 53.960938 10.949219 53.960938 12.074219 L 53.960938 17.914062 C 53.960938 19.042969 53.046875 19.953125 51.921875 19.953125 L 46.082031 19.953125 C 44.957031 19.953125 44.042969 19.042969 44.042969 17.914062 L 44.042969 12.074219 C 44.042969 10.949219 44.957031 10.035156 46.082031 10.035156 Z M 46.082031 10.035156 "/>
<path style=" stroke:none;fill-rule:nonzero;fill:rgb(18.039216%,20.392157%,25.098041%);fill-opacity:1;" d="M 12.074219 10.035156 L 17.914062 10.035156 C 19.042969 10.035156 19.953125 10.949219 19.953125 12.074219 L 19.953125 17.914062 C 19.953125 19.042969 19.042969 19.953125 17.914062 19.953125 L 12.074219 19.953125 C 10.949219 19.953125 10.035156 19.042969 10.035156 17.914062 L 10.035156 12.074219 C 10.035156 10.949219 10.949219 10.035156 12.074219 10.035156 Z M 12.074219 10.035156 "/>
<path style=" stroke:none;fill-rule:nonzero;fill:rgb(18.039216%,20.392157%,25.098041%);fill-opacity:1;" d="M 12.074219 27.039062 L 17.914062 27.039062 C 19.042969 27.039062 19.953125 27.953125 19.953125 29.078125 L 19.953125 34.917969 C 19.953125 36.046875 19.042969 36.957031 17.914062 36.957031 L 12.074219 36.957031 C 10.949219 36.957031 10.035156 36.046875 10.035156 34.917969 L 10.035156 29.078125 C 10.035156 27.953125 10.949219 27.039062 12.074219 27.039062 Z M 12.074219 27.039062 "/>
<path style=" stroke:none;fill-rule:nonzero;fill:rgb(18.039216%,20.392157%,25.098041%);fill-opacity:1;" d="M 12.074219 44.042969 L 17.914062 44.042969 C 19.042969 44.042969 19.953125 44.957031 19.953125 46.082031 L 19.953125 51.921875 C 19.953125 53.050781 19.042969 53.960938 17.914062 53.960938 L 12.074219 53.960938 C 10.949219 53.960938 10.035156 53.050781 10.035156 51.921875 L 10.035156 46.082031 C 10.035156 44.957031 10.949219 44.042969 12.074219 44.042969 Z M 12.074219 44.042969 "/>
<path style=" stroke:none;fill-rule:nonzero;fill:rgb(18.039216%,20.392157%,25.098041%);fill-opacity:1;" d="M 29.078125 44.042969 L 34.917969 44.042969 C 36.046875 44.042969 36.957031 44.957031 36.957031 46.082031 L 36.957031 51.921875 C 36.957031 53.050781 36.046875 53.960938 34.917969 53.960938 L 29.078125 53.960938 C 27.953125 53.960938 27.039062 53.050781 27.039062 51.921875 L 27.039062 46.082031 C 27.039062 44.957031 27.953125 44.042969 29.078125 44.042969 Z M 29.078125 44.042969 "/>
<path style=" stroke:none;fill-rule:nonzero;fill:rgb(18.039216%,20.392157%,25.098041%);fill-opacity:1;" d="M 46.082031 27.039062 L 51.921875 27.039062 C 53.046875 27.039062 53.960938 27.953125 53.960938 29.078125 L 53.960938 34.917969 C 53.960938 36.046875 53.046875 36.957031 51.921875 36.957031 L 46.082031 36.957031 C 44.957031 36.957031 44.042969 36.046875 44.042969 34.917969 L 44.042969 29.078125 C 44.042969 27.953125 44.957031 27.039062 46.082031 27.039062 Z M 46.082031 27.039062 "/>
<path style=" stroke:none;fill-rule:nonzero;fill:rgb(18.039216%,20.392157%,25.098041%);fill-opacity:1;" d="M 46.082031 44.042969 L 51.921875 44.042969 C 53.046875 44.042969 53.960938 44.957031 53.960938 46.082031 L 53.960938 51.921875 C 53.960938 53.050781 53.046875 53.960938 51.921875 53.960938 L 46.082031 53.960938 C 44.957031 53.960938 44.042969 53.050781 44.042969 51.921875 L 44.042969 46.082031 C 44.042969 44.957031 44.957031 44.042969 46.082031 44.042969 Z M 46.082031 44.042969 "/>
</g>
</svg>

<svg width="64" height="64" version="1.1" viewBox="0 0 64 64" xmlns="http://www.w3.org/2000/svg">
 <g fill="#2e3440">
  <path d="m29.078 27.039h5.8398c1.125 0 2.0391 0.91406 2.0391 2.0391v5.8398c0 1.1289-0.91406 2.0391-2.0391 2.0391h-5.8398c-1.125 0-2.0391-0.91016-2.0391-2.0391v-5.8398c0-1.125 0.91406-2.0391 2.0391-2.0391z"/>
  <path d="m29.078 10.035h5.8398c1.125 0 2.0391 0.91406 2.0391 2.0391v5.8398c0 1.1289-0.91406 2.0391-2.0391 2.0391h-5.8398c-1.125 0-2.0391-0.91016-2.0391-2.0391v-5.8398c0-1.125 0.91406-2.0391 2.0391-2.0391z"/>
  <path d="m46.082 10.035h5.8398c1.125 0 2.0391 0.91406 2.0391 2.0391v5.8398c0 1.1289-0.91406 2.0391-2.0391 2.0391h-5.8398c-1.125 0-2.0391-0.91016-2.0391-2.0391v-5.8398c0-1.125 0.91406-2.0391 2.0391-2.0391z"/>
  <path d="m12.074 10.035h5.8398c1.1289 0 2.0391 0.91406 2.0391 2.0391v5.8398c0 1.1289-0.91016 2.0391-2.0391 2.0391h-5.8398c-1.125 0-2.0391-0.91016-2.0391-2.0391v-5.8398c0-1.125 0.91406-2.0391 2.0391-2.0391z"/>
  <path d="m12.074 27.039h5.8398c1.1289 0 2.0391 0.91406 2.0391 2.0391v5.8398c0 1.1289-0.91016 2.0391-2.0391 2.0391h-5.8398c-1.125 0-2.0391-0.91016-2.0391-2.0391v-5.8398c0-1.125 0.91406-2.0391 2.0391-2.0391z"/>
  <path d="m12.074 44.043h5.8398c1.1289 0 2.0391 0.91406 2.0391 2.0391v5.8398c0 1.1289-0.91016 2.0391-2.0391 2.0391h-5.8398c-1.125 0-2.0391-0.91016-2.0391-2.0391v-5.8398c0-1.125 0.91406-2.0391 2.0391-2.0391z"/>
  <path d="m29.078 44.043h5.8398c1.1289 0 2.0391 0.91406 2.0391 2.0391v5.8398c0 1.1289-0.91016 2.0391-2.0391 2.0391h-5.8398c-1.125 0-2.0391-0.91016-2.0391-2.0391v-5.8398c0-1.125 0.91406-2.0391 2.0391-2.0391z"/>
  <path d="m46.082 27.039h5.8398c1.125 0 2.0391 0.91406 2.0391 2.0391v5.8398c0 1.1289-0.91406 2.0391-2.0391 2.0391h-5.8398c-1.125 0-2.0391-0.91016-2.0391-2.0391v-5.8398c0-1.125 0.91406-2.0391 2.0391-2.0391z"/>
  <path d="m46.082 44.043h5.8398c1.125 0 2.0391 0.91406 2.0391 2.0391v5.8398c0 1.1289-0.91406 2.0391-2.0391 2.0391h-5.8398c-1.125 0-2.0391-0.91016-2.0391-2.0391v-5.8398c0-1.125 0.91406-2.0391 2.0391-2.0391z"/>
 </g>
</svg>
